modules/hawcons-filled/icons/icon-21-file-php.svg

<?xml version="1.0" encoding="UTF-8" standalone="no"?>
<svg width="32px" height="32px" viewBox="0 0 32 32" version="1.1" xmlns="http://www.w3.org/2000/svg" xmlns:xlink="http://www.w3.org/1999/xlink" xmlns:sketch="http://www.bohemiancoding.com/sketch/ns">
    <!-- Generator: Sketch 3.0.3 (7891) - http://www.bohemiancoding.com/sketch -->
    <title>icon 21 file php</title>
    <desc>Created with Sketch.</desc>
    <defs></defs>
    <g id="Page-1" stroke="none" stroke-width="1" fill="none" fill-rule="evenodd" sketch:type="MSPage">
        <g id="icon-21-file-php" sketch:type="MSArtboardGroup" fill="#929292">
            <path d="M8.00684834,10 C6.34621185,10 5,11.3422643 5,12.9987856 L5,20.0012144 C5,21.6573979 6.33599155,23 8.00684834,23 L24.9931517,23 C26.6537881,23 28,21.6577357 28,20.0012144 L28,12.9987856 C28,11.3426021 26.6640085,10 24.9931517,10 L8.00684834,10 L8.00684834,10 Z M8,15 L8,20 L9,20 L9,17 L10.9951185,17 C12.102384,17 13,16.1122704 13,15 C13,13.8954305 12.1061002,13 10.9951185,13 L8,13 L8,15 L8,15 Z M9,14 L9,16 L11.0010434,16 C11.5527519,16 12,15.5561352 12,15 C12,14.4477153 11.5573397,14 11.0010434,14 L9,14 L9,14 Z M18,16 L18,13 L19,13 L19,20 L18,20 L18,17 L15,17 L15,20 L14,20 L14,13 L15,13 L15,16 L18,16 L18,16 Z M20,15 L20,20 L21,20 L21,17 L22.9951185,17 C24.102384,17 25,16.1122704 25,15 C25,13.8954305 24.1061002,13 22.9951185,13 L20,13 L20,15 L20,15 Z M21,14 L21,16 L23.0010434,16 C23.5527519,16 24,15.5561352 24,15 C24,14.4477153 23.5573397,14 23.0010434,14 L21,14 L21,14 Z" id="file-php" sketch:type="MSShapeGroup"></path>
        </g>
    </g>
</svg>

<svg width="32" height="32" viewBox="0 0 32 32" xmlns="http://www.w3.org/2000/svg"><path d="M8.007 10A3.003 3.003 0 0 0 5 12.999V20A2.996 2.996 0 0 0 8.007 23h16.986A3.003 3.003 0 0 0 28 20.001V13A2.996 2.996 0 0 0 24.993 10H8.007zM8 15v5h1v-3h1.995a2 2 0 0 0 0-4H8v2zm1-1v2h2.001A.997.997 0 0 0 12 15c0-.552-.443-1-.999-1H9zm9 2v-3h1v7h-1v-3h-3v3h-1v-7h1v3h3zm2-1v5h1v-3h1.995a2 2 0 0 0 0-4H20v2zm1-1v2h2.001A.997.997 0 0 0 24 15c0-.552-.443-1-.999-1H21z" fill="#929292" fill-rule="evenodd"/></svg>
